Newaita-dark/mimetypes/64/application-x-kplato.svg

<?xml version="1.0" encoding="UTF-8"?>
<svg xmlns="http://www.w3.org/2000/svg" xmlns:xlink="http://www.w3.org/1999/xlink" width="64px" height="64px" viewBox="0 0 64 64" version="1.1">
<defs>
<linearGradient id="linear0" gradientUnits="userSpaceOnUse" x1="254" y1="233.5" x2="254" y2="254.666672" gradientTransform="matrix(0.125012,0,0,0.125012,1.32304,26.877566)">
<stop offset="0" style="stop-color:rgb(0%,0%,0%);stop-opacity:0.27451;"/>
<stop offset="1" style="stop-color:rgb(0%,0%,0%);stop-opacity:0;"/>
</linearGradient>
<radialGradient id="radial0" gradientUnits="userSpaceOnUse" cx="450.908936" cy="189.579361" fx="450.908936" fy="189.579361" r="21.166656" gradientTransform="matrix(0.000000348341,-0.156265,-0.281277,-0.000000203077,98.969138,127.190661)">
<stop offset="0" style="stop-color:rgb(0%,0%,0%);stop-opacity:0.313726;"/>
<stop offset="0.222222" style="stop-color:rgb(0%,0%,0%);stop-opacity:0.27451;"/>
<stop offset="1" style="stop-color:rgb(0%,0%,0%);stop-opacity:0;"/>
</radialGradient>
<radialGradient id="radial1" gradientUnits="userSpaceOnUse" cx="450.908936" cy="189.579361" fx="450.908936" fy="189.579361" r="21.166656" gradientTransform="matrix(-0.000000348341,0.156265,0.281277,0.000000203077,-36.786098,-15.054962)">
<stop offset="0" style="stop-color:rgb(0%,0%,0%);stop-opacity:0.313726;"/>
<stop offset="0.222222" style="stop-color:rgb(0%,0%,0%);stop-opacity:0.27451;"/>
<stop offset="1" style="stop-color:rgb(0%,0%,0%);stop-opacity:0;"/>
</radialGradient>
<radialGradient id="radial2" gradientUnits="userSpaceOnUse" cx="450.908936" cy="189.579361" fx="450.908936" fy="189.579361" r="21.166656" gradientTransform="matrix(-0.000000348341,-0.156265,0.281277,-0.000000203077,-36.786098,127.190661)">
<stop offset="0" style="stop-color:rgb(0%,0%,0%);stop-opacity:0.313726;"/>
<stop offset="0.222222" style="stop-color:rgb(0%,0%,0%);stop-opacity:0.27451;"/>
<stop offset="1" style="stop-color:rgb(0%,0%,0%);stop-opacity:0;"/>
</radialGradient>
<radialGradient id="radial3" gradientUnits="userSpaceOnUse" cx="450.908936" cy="189.579361" fx="450.908936" fy="189.579361" r="21.166656" gradientTransform="matrix(0.000000348341,0.156265,-0.281277,0.000000203077,98.969135,-15.054963)">
<stop offset="0" style="stop-color:rgb(0%,0%,0%);stop-opacity:0.313726;"/>
<stop offset="0.222222" style="stop-color:rgb(0%,0%,0%);stop-opacity:0.27451;"/>
<stop offset="1" style="stop-color:rgb(0%,0%,0%);stop-opacity:0;"/>
</radialGradient>
<linearGradient id="linear1" gradientUnits="userSpaceOnUse" x1="940" y1="1695.118164" x2="940" y2="175.118118" gradientTransform="matrix(0.0330761,0,0,0.0330761,0,0)">
<stop offset="0" style="stop-color:rgb(73.725492%,66.666669%,64.313728%);stop-opacity:1;"/>
<stop offset="1" style="stop-color:rgb(84.313726%,80.000001%,78.431374%);stop-opacity:1;"/>
</linearGradient>
<filter id="alpha" filterUnits="objectBoundingBox" x="0%" y="0%" width="100%" height="100%">
  <feColorMatrix type="matrix" in="SourceGraphic" values="0 0 0 0 1 0 0 0 0 1 0 0 0 0 1 0 0 0 1 0"/>
</filter>
<mask id="mask0">
  <g filter="url(#alpha)">
<rect x="0" y="0" width="64" height="64" style="fill:rgb(0%,0%,0%);fill-opacity:0.99;stroke:none;"/>
  </g>
</mask>
<clipPath id="clip1">
  <rect x="0" y="0" width="64" height="64"/>
</clipPath>
<g id="surface5" clip-path="url(#clip1)">
<path style="fill-rule:nonzero;fill:rgb(63.137257%,53.333336%,49.803922%);fill-opacity:1;stroke-width:11.338583;stroke-linecap:round;stroke-linejoin:round;stroke:rgb(12.941177%,12.941177%,12.941177%);stroke-opacity:1;stroke-miterlimit:4;" d="M 740.008112 695.130505 C 728.906809 695.130505 720.049387 703.987928 720.049387 715.08923 L 720.049387 733.748867 L 630.057976 733.748867 C 626.869304 733.748867 623.798731 734.221263 620.964356 735.166054 L 620.019564 735.166054 C 608.918261 735.166054 599.94274 744.023477 599.94274 755.124779 L 599.94274 1235.078971 C 599.94274 1246.180274 608.918261 1255.155795 620.019564 1255.155795 L 1259.997853 1255.155795 C 1271.099155 1255.155795 1279.956578 1246.180274 1279.956578 1235.078971 L 1279.956578 755.124779 C 1279.956578 744.023477 1271.099155 735.166054 1259.997853 735.166054 L 1259.053061 735.166054 C 1256.218686 734.221263 1253.148113 733.748867 1249.959441 733.748867 L 1159.96803 733.748867 L 1159.96803 715.08923 C 1159.96803 703.987928 1151.110607 695.130505 1140.009305 695.130505 L 1060.056306 695.130505 C 1048.955003 695.130505 1039.979482 703.987928 1039.979482 715.08923 L 1039.979482 733.748867 L 840.037935 733.748867 L 840.037935 715.08923 C 840.037935 703.987928 831.062413 695.130505 819.961111 695.130505 Z M 699.972563 855.154602 L 780.043661 855.154602 C 791.026864 855.154602 800.002386 864.012025 800.002386 875.113327 L 800.002386 955.066326 C 800.002386 966.167629 791.026864 975.14315 780.043661 975.14315 L 699.972563 975.14315 C 688.87126 975.14315 680.013838 966.167629 680.013838 955.066326 L 680.013838 875.113327 C 680.013838 864.012025 688.87126 855.154602 699.972563 855.154602 Z M 900.032209 855.154602 L 979.985208 855.154602 C 991.08651 855.154602 999.943933 864.012025 999.943933 875.113327 L 999.943933 955.066326 C 999.943933 966.167629 991.08651 975.14315 979.985208 975.14315 L 900.032209 975.14315 C 888.930906 975.14315 879.955385 966.167629 879.955385 955.066326 L 879.955385 875.113327 C 879.955385 864.012025 888.930906 855.154602 900.032209 855.154602 Z M 1099.973756 855.154602 L 1180.044854 855.154602 C 1191.028057 855.154602 1200.003579 864.012025 1200.003579 875.113327 L 1200.003579 955.066326 C 1200.003579 966.167629 1191.028057 975.14315 1180.044854 975.14315 L 1099.973756 975.14315 C 1088.872453 975.14315 1080.015031 966.167629 1080.015031 955.066326 L 1080.015031 875.113327 C 1080.015031 864.012025 1088.872453 855.154602 1099.973756 855.154602 Z M 699.972563 1055.096149 L 780.043661 1055.096149 C 791.026864 1055.096149 800.002386 1064.071671 800.002386 1075.172973 L 800.002386 1155.125972 C 800.002386 1166.227275 791.026864 1175.084697 780.043661 1175.084697 L 699.972563 1175.084697 C 688.87126 1175.084697 680.013838 1166.227275 680.013838 1155.125972 L 680.013838 1075.172973 C 680.013838 1064.071671 688.87126 1055.096149 699.972563 1055.096149 Z M 900.032209 1055.096149 L 979.985208 1055.096149 C 991.08651 1055.096149 999.943933 1064.071671 999.943933 1075.172973 L 999.943933 1155.125972 C 999.943933 1166.227275 991.08651 1175.084697 979.985208 1175.084697 L 900.032209 1175.084697 C 888.930906 1175.084697 879.955385 1166.227275 879.955385 1155.125972 L 879.955385 1075.172973 C 879.955385 1064.071671 888.930906 1055.096149 900.032209 1055.096149 Z M 1099.973756 1055.096149 L 1180.044854 1055.096149 C 1191.028057 1055.096149 1200.003579 1064.071671 1200.003579 1075.172973 L 1200.003579 1155.125972 C 1200.003579 1166.227275 1191.028057 1175.084697 1180.044854 1175.084697 L 1099.973756 1175.084697 C 1088.872453 1175.084697 1080.015031 1166.227275 1080.015031 1155.125972 L 1080.015031 1075.172973 C 1080.015031 1064.071671 1088.872453 1055.096149 1099.973756 1055.096149 Z M 1099.973756 1055.096149 " transform="matrix(0.0330761,0,0,0.0330761,0,0)"/>
</g>
<linearGradient id="linear2" gradientUnits="userSpaceOnUse" x1="249.189423" y1="233.5" x2="249.189423" y2="254.666687" gradientTransform="matrix(0.0597883,0,0,0.218771,30.084845,-32.721821)">
<stop offset="0" style="stop-color:rgb(0%,0%,0%);stop-opacity:0.27451;"/>
<stop offset="1" style="stop-color:rgb(0%,0%,0%);stop-opacity:0;"/>
</linearGradient>
</defs>
<g id="surface1">
<path style=" stroke:none;fill-rule:nonzero;fill:url(#linear0);" d="M 15.875 56.066406 L 46.304688 56.066406 L 46.304688 58.714844 L 15.875 58.714844 Z M 15.875 56.066406 "/>
<path style=" stroke:none;fill-rule:nonzero;fill:url(#radial0);" d="M 46.304688 56.066406 L 51.597656 56.066406 L 51.597656 53.421875 L 46.304688 53.421875 Z M 46.304688 56.066406 "/>
<path style=" stroke:none;fill-rule:nonzero;fill:url(#radial1);" d="M 15.875 56.066406 L 10.585938 56.066406 L 10.585938 58.714844 L 15.875 58.714844 Z M 15.875 56.066406 "/>
<path style=" stroke:none;fill-rule:nonzero;fill:url(#radial2);" d="M 15.875 56.066406 L 10.585938 56.066406 L 10.585938 53.421875 L 15.875 53.421875 Z M 15.875 56.066406 "/>
<path style=" stroke:none;fill-rule:nonzero;fill:url(#radial3);" d="M 46.304688 56.066406 L 51.597656 56.066406 L 51.597656 58.714844 L 46.304688 58.714844 Z M 46.304688 56.066406 "/>
<path style=" stroke:none;fill-rule:nonzero;fill:url(#linear1);" d="M 37.085938 5.792969 L 13.230469 5.792969 C 11.765625 5.792969 10.585938 6.972656 10.585938 8.4375 L 10.585938 53.421875 C 10.585938 54.886719 11.765625 56.066406 13.230469 56.066406 L 48.953125 56.066406 C 50.417969 56.066406 51.597656 54.886719 51.597656 53.421875 L 51.597656 20.308594 Z M 37.085938 5.792969 "/>
<path style=" stroke:none;fill-rule:nonzero;fill:rgb(0%,0%,0%);fill-opacity:0.235294;" d="M 10.585938 52.394531 L 10.585938 53.421875 C 10.585938 54.886719 11.765625 56.066406 13.230469 56.066406 L 48.953125 56.066406 C 50.417969 56.066406 51.597656 54.886719 51.597656 53.421875 L 51.597656 52.394531 C 51.597656 53.859375 50.417969 55.039062 48.953125 55.039062 L 13.230469 55.039062 C 11.765625 55.039062 10.585938 53.859375 10.585938 52.394531 Z M 10.585938 52.394531 "/>
<use xlink:href="#surface5" mask="url(#mask0)"/>
<path style=" stroke:none;fill-rule:nonzero;fill:url(#linear2);" d="M 37.046875 18.359375 L 49.613281 18.359375 L 51.597656 20.34375 L 51.597656 22.992188 L 37.046875 22.992188 Z M 37.046875 18.359375 "/>
<path style=" stroke:none;fill-rule:nonzero;fill:rgb(96.470588%,96.470588%,96.470588%);fill-opacity:0.588235;" d="M 13.230469 5.792969 C 11.765625 5.792969 10.585938 6.972656 10.585938 8.4375 L 10.585938 9.429688 C 10.585938 7.964844 11.765625 6.785156 13.230469 6.785156 L 37.085938 6.785156 L 51.597656 21.300781 L 51.597656 20.308594 L 37.085938 5.792969 Z M 13.230469 5.792969 "/>
<path style=" stroke:none;fill-rule:nonzero;fill:rgb(63.137257%,53.333336%,49.803922%);fill-opacity:1;" d="M 51.597656 20.308594 L 37.085938 5.792969 L 37.085938 17.660156 C 37.085938 19.125 38.265625 20.308594 39.730469 20.308594 Z M 51.597656 20.308594 "/>
<path style=" stroke:none;fill-rule:nonzero;fill:rgb(0%,0%,0%);fill-opacity:0.235294;" d="M 37.085938 17.039062 L 37.085938 17.660156 C 37.085938 19.125 38.265625 20.308594 39.730469 20.308594 L 51.597656 20.308594 L 50.976562 19.683594 L 39.730469 19.683594 C 38.265625 19.683594 37.085938 18.503906 37.085938 17.039062 Z M 37.085938 17.039062 "/>
<path style=" stroke:none;fill-rule:nonzero;fill:rgb(100%,100%,100%);fill-opacity:0.392157;" d="M 37.085938 5.792969 L 37.085938 6.785156 L 50.605469 20.308594 L 51.597656 20.308594 Z M 37.085938 5.792969 "/>
<path style=" stroke:none;fill-rule:nonzero;fill:rgb(12.941177%,12.941177%,12.941177%);fill-opacity:1;" d="M 37.082031 5.605469 C 36.980469 5.605469 36.898438 5.691406 36.898438 5.792969 L 36.898438 17.660156 C 36.898438 19.226562 38.164062 20.496094 39.730469 20.496094 L 51.597656 20.496094 C 51.675781 20.492188 51.742188 20.449219 51.773438 20.378906 C 51.800781 20.308594 51.785156 20.226562 51.730469 20.175781 L 37.214844 5.660156 C 37.179688 5.625 37.132812 5.605469 37.082031 5.605469 Z M 37.273438 6.246094 L 51.144531 20.117188 L 39.730469 20.117188 C 38.363281 20.117188 37.273438 19.027344 37.273438 17.660156 Z M 37.273438 6.246094 "/>
<path style=" stroke:none;fill-rule:nonzero;fill:rgb(12.941177%,12.941177%,12.941177%);fill-opacity:1;" d="M 13.230469 5.605469 C 11.664062 5.605469 10.398438 6.871094 10.398438 8.4375 L 10.398438 53.421875 C 10.398438 54.988281 11.664062 56.253906 13.230469 56.253906 L 48.953125 56.253906 C 50.519531 56.253906 51.785156 54.988281 51.785156 53.421875 L 51.785156 20.308594 C 51.785156 20.257812 51.765625 20.210938 51.730469 20.175781 L 37.214844 5.660156 C 37.179688 5.625 37.132812 5.605469 37.085938 5.605469 Z M 13.230469 5.980469 L 37.007812 5.980469 L 51.410156 20.382812 L 51.410156 53.421875 C 51.410156 54.785156 50.316406 55.878906 48.953125 55.878906 L 13.230469 55.878906 C 11.863281 55.878906 10.773438 54.785156 10.773438 53.421875 L 10.773438 8.4375 C 10.773438 7.074219 11.863281 5.980469 13.230469 5.980469 Z M 13.230469 5.980469 "/>
</g>
</svg>

<svg xmlns="http://www.w3.org/2000/svg" xmlns:xlink="http://www.w3.org/1999/xlink" width="64pt" height="64pt" viewBox="0 0 64 64"><defs><linearGradient id="c" gradientUnits="userSpaceOnUse" x1="254" y1="233.5" x2="254" y2="254.667" gradientTransform="translate(1.323 26.878) scale(.12501)"><stop offset="0" stop-opacity=".275"/><stop offset="1" stop-opacity="0"/></linearGradient><radialGradient id="d" gradientUnits="userSpaceOnUse" cx="450.909" cy="189.579" fx="450.909" fy="189.579" r="21.167" gradientTransform="matrix(0 -.15626 -.28128 0 98.97 127.19)"><stop offset="0" stop-opacity=".314"/><stop offset=".222" stop-opacity=".275"/><stop offset="1" stop-opacity="0"/></radialGradient><radialGradient id="e" gradientUnits="userSpaceOnUse" cx="450.909" cy="189.579" fx="450.909" fy="189.579" r="21.167" gradientTransform="matrix(0 .15626 .28128 0 -36.786 -15.055)"><stop offset="0" stop-opacity=".314"/><stop offset=".222" stop-opacity=".275"/><stop offset="1" stop-opacity="0"/></radialGradient><radialGradient id="f" gradientUnits="userSpaceOnUse" cx="450.909" cy="189.579" fx="450.909" fy="189.579" r="21.167" gradientTransform="matrix(0 -.15626 .28128 0 -36.786 127.19)"><stop offset="0" stop-opacity=".314"/><stop offset=".222" stop-opacity=".275"/><stop offset="1" stop-opacity="0"/></radialGradient><radialGradient id="g" gradientUnits="userSpaceOnUse" cx="450.909" cy="189.579" fx="450.909" fy="189.579" r="21.167" gradientTransform="matrix(0 .15626 -.28128 0 98.97 -15.055)"><stop offset="0" stop-opacity=".314"/><stop offset=".222" stop-opacity=".275"/><stop offset="1" stop-opacity="0"/></radialGradient><linearGradient id="h" gradientUnits="userSpaceOnUse" x1="940" y1="1695.118" x2="940" y2="175.118" gradientTransform="scale(.03308)"><stop offset="0" stop-color="#bcaaa4"/><stop offset="1" stop-color="#d7ccc8"/></linearGradient><filter id="a" filterUnits="objectBoundingBox" x="0%" y="0%" width="100%" height="100%"><feColorMatrix in="SourceGraphic" values="0 0 0 0 1 0 0 0 0 1 0 0 0 0 1 0 0 0 1 0"/></filter><mask id="j"><path fill-opacity=".988" d="M0 0h64v64H0z" filter="url(#a)"/></mask><clipPath id="b"><path d="M0 0h64v64H0z"/></clipPath><g id="i" clip-path="url(#b)"><path d="M24.477 22.992a.657.657 0 0 0-.66.66v.618H20.84a.951.951 0 0 0-.3.046h-.032a.66.66 0 0 0-.664.66v15.876c0 .367.297.664.664.664h21.168a.66.66 0 0 0 .66-.664V24.977a.657.657 0 0 0-.66-.66h-.031a.951.951 0 0 0-.301-.047h-2.977v-.618a.657.657 0 0 0-.66-.66h-2.644a.66.66 0 0 0-.665.66v.618h-6.613v-.618a.66.66 0 0 0-.664-.66zm-1.325 5.293h2.649a.66.66 0 0 1 .66.66v2.645a.663.663 0 0 1-.66.664h-2.649a.66.66 0 0 1-.66-.664v-2.645c0-.367.293-.66.66-.66zm6.618 0h2.644c.367 0 .66.293.66.66v2.645a.66.66 0 0 1-.66.664H29.77a.664.664 0 0 1-.665-.664v-2.645a.66.66 0 0 1 .665-.66zm6.613 0h2.648a.66.66 0 0 1 .66.66v2.645a.663.663 0 0 1-.66.664h-2.648a.66.66 0 0 1-.66-.664v-2.645c0-.367.293-.66.66-.66zm-13.23 6.613H25.8c.363 0 .66.297.66.665v2.644a.66.66 0 0 1-.66.66h-2.649a.657.657 0 0 1-.66-.66v-2.644a.66.66 0 0 1 .66-.665zm6.617 0h2.644a.66.66 0 0 1 .66.665v2.644c0 .367-.293.66-.66.66H29.77a.66.66 0 0 1-.665-.66v-2.644c0-.368.297-.665.665-.665zm6.613 0h2.648c.364 0 .66.297.66.665v2.644a.66.66 0 0 1-.66.66h-2.648a.657.657 0 0 1-.66-.66v-2.644a.66.66 0 0 1 .66-.665zm0 0" fill="#a1887f" stroke-width=".37509412" stroke-linecap="round" stroke-linejoin="round" stroke="#212121"/></g><linearGradient id="k" gradientUnits="userSpaceOnUse" x1="249.189" y1="233.5" x2="249.189" y2="254.667" gradientTransform="matrix(.05979 0 0 .21877 30.085 -32.722)"><stop offset="0" stop-opacity=".275"/><stop offset="1" stop-opacity="0"/></linearGradient></defs><path d="M15.875 56.066h30.43v2.649h-30.43zm0 0" fill="url(#c)"/><path d="M46.305 56.066h5.293v-2.644h-5.293zm0 0" fill="url(#d)"/><path d="M15.875 56.066h-5.29v2.649h5.29zm0 0" fill="url(#e)"/><path d="M15.875 56.066h-5.29v-2.644h5.29zm0 0" fill="url(#f)"/><path d="M46.305 56.066h5.293v2.649h-5.293zm0 0" fill="url(#g)"/><path d="M37.086 5.793H13.23a2.639 2.639 0 0 0-2.644 2.644v44.985a2.639 2.639 0 0 0 2.644 2.644h35.723a2.639 2.639 0 0 0 2.645-2.644V20.309zm0 0" fill="url(#h)"/><path d="M10.586 52.395v1.027a2.639 2.639 0 0 0 2.644 2.644h35.723a2.639 2.639 0 0 0 2.645-2.644v-1.027a2.639 2.639 0 0 1-2.645 2.644H13.23a2.639 2.639 0 0 1-2.644-2.644zm0 0" fill-opacity=".235"/><use xlink:href="#i" mask="url(#j)"/><path d="M37.047 18.36h12.566l1.985 1.984v2.648H37.047zm0 0" fill="url(#k)"/><path d="M13.23 5.793a2.639 2.639 0 0 0-2.644 2.644v.993a2.639 2.639 0 0 1 2.644-2.645h23.856l14.512 14.516v-.992L37.086 5.793zm0 0" fill="#f6f6f6" fill-opacity=".588"/><path d="M51.598 20.309L37.086 5.793V17.66a2.642 2.642 0 0 0 2.644 2.649zm0 0" fill="#a1887f"/><path d="M37.086 17.04v.62a2.642 2.642 0 0 0 2.644 2.649h11.868l-.621-.625H39.73a2.639 2.639 0 0 1-2.644-2.645zm0 0" fill-opacity=".235"/><path d="M37.086 5.793v.992l13.52 13.524h.992zm0 0" fill="#fff" fill-opacity=".392"/><path d="M37.082 5.605a.187.187 0 0 0-.184.188V17.66a2.832 2.832 0 0 0 2.832 2.836h11.868a.198.198 0 0 0 .175-.117.186.186 0 0 0-.043-.203L37.215 5.66a.186.186 0 0 0-.133-.055zm.191.641l13.872 13.871H39.73a2.444 2.444 0 0 1-2.457-2.457zm0 0" fill="#212121"/><path d="M13.23 5.605a2.83 2.83 0 0 0-2.832 2.832v44.985a2.83 2.83 0 0 0 2.832 2.832h35.723a2.83 2.83 0 0 0 2.832-2.832V20.309c0-.051-.02-.098-.055-.133L37.215 5.66a.184.184 0 0 0-.13-.055zm0 .375h23.778L51.41 20.383v33.039a2.449 2.449 0 0 1-2.457 2.457H13.23a2.447 2.447 0 0 1-2.457-2.457V8.438A2.447 2.447 0 0 1 13.23 5.98zm0 0" fill="#212121"/></svg>
